!!!Xfilter: transpose -t P8
!!!OTL: 1688. Do brevitate [Carmen amobæum]. / D. Die kurze Jugendlust (1717).
!!!ODT: 1788
!!!ARE: Europa, Mitteleuropa, Deutschland
!!!SCT: E1688B
!!!TXL: @@DE
!!!YEM: Copyright 1995, estate of Helmut Schaffrath.
**kern	**text
*ICvox	*
*M3/4	*
*k[f#c#]	*
*D:	*
=1	=1
!LO:TX:a:t=Langsam.	!
!LO:TX:a:t=Aelteſte Faſſung der Mel. (1788).	!
{8.dd	Brü-
16a	-der,
4.a	laßt
8dd	uns
=2	=2
8b	lu-
8b	-ſtig
2b}	ſein,
=3	=3
{8.cc#	weil
16dd	der
8ff#qq	.
4ee	Früh-
8ddqq	.
4cc#	-ling
=4	=4
4dd	wäh-
4d	-ret!
4r}	.
=5	=5
{8.dd	Bricht
16a	der
4.a	Jah-
8dd	-re
=6	=6
8b	Win-
8b	-ter
2b}	ein,
=7	=7
{8.cc#	iſt
16dd	die
8ff#qq	.
4ee	Kraft
8ddqq	.
4cc#	ver-
=8	=8
4dd	-ʒeh-
4d	-ret.
4r}	.
=9	=9
{8.cc#	Tag
16dd	und
4ee	Stunde
4ee	.
=10	=10
8.ff#	war-
16dd	-ten
2ee}	nicht,
=11	=11
{8.cc#	dem,
16dd	der
4ee	kei-
4ee	-ne
=12	=12
8.ff#	Ro-
16dd	-ſen
2ee}	bricht,
=13	=13
{8.dd	iſt
16cc#	kein
4b	Kranʒ
8ggL	be-
8eeJ	.
=14	=14
8ddL	-ſche-
8cc#J	.
2dd}	-ret.
==	==
!!!AGN: Staende -, Studenten - Lied
!!!ONB: ESAC (Essen Associative Code) Database: ERK3
!!!AMT: simple triple
!!!AIN: vox
!!!EED: Helmut Schaffrath
!!!EEV: 1.0
!!!GTL: Staendelieder (Berufslieder). 10. Einige Studentenlieder.
!!!URL-scan: https://rosdok.uni-rostock.de/mcrviewer/recordIdentifier/rosdok_ppn745177999/iview2/phys_0495.iview2?x=-449.8344612962892&y=169.41296650771983&scale=0.47549036216460333&rotation=0&layout=singlePageLayout
!!!ENC: Anna Maria Matuszewska
!!!EEV: 2025/08/01
*-	*-
